assets/offering/ovader.svg

<svg width="48" height="48" viewBox="0 0 48 48" fill="none" xmlns="http://www.w3.org/2000/svg">
<mask id="mask0" mask-type="alpha" maskUnits="userSpaceOnUse" x="0" y="0" width="48" height="48">
<path fill-rule="evenodd" clip-rule="evenodd" d="M0 0H47.9999V47.9998H0V0Z" fill="white"/>
</mask>
<g mask="url(#mask0)">
<path fill-rule="evenodd" clip-rule="evenodd" d="M48 24C48 37.255 37.255 48 24 48C10.745 48 0 37.255 0 24C0 10.745 10.745 0 24 0C37.255 0 48 10.745 48 24" fill="#1BE9B6"/>
</g>
<path fill-rule="evenodd" clip-rule="evenodd" d="M25.8945 38.6831V32.7041H23.8345V25.9101H24.8345V31.7031H26.8945V36.2131L32.5025 30.4211H30.2045L32.0565 25.7261L32.9865 26.0941L31.6725 29.4211H34.8645L25.8945 38.6831Z" fill="white"/>
<path fill-rule="evenodd" clip-rule="evenodd" d="M15.3037 31.2429C15.0277 31.2429 14.8037 31.0189 14.8037 30.7429V25.8989C14.8037 25.6229 15.0277 25.3989 15.3037 25.3989C15.5797 25.3989 15.8037 25.6229 15.8037 25.8989V30.7429C15.8037 31.0189 15.5797 31.2429 15.3037 31.2429" fill="white"/>
<path fill-rule="evenodd" clip-rule="evenodd" d="M19.7178 36.5763C19.4418 36.5763 19.2178 36.3523 19.2178 36.0763V26.2993C19.2178 26.0223 19.4418 25.7993 19.7178 25.7993C19.9938 25.7993 20.2178 26.0223 20.2178 26.2993V36.0763C20.2178 36.3523 19.9938 36.5763 19.7178 36.5763" fill="white"/>
<path fill-rule="evenodd" clip-rule="evenodd" d="M14.0167 18.7312C12.1447 18.7312 10.6777 20.1982 10.6777 22.0702C10.6777 23.9432 12.1447 25.4102 14.0167 25.4102H34.3667C36.0237 25.4102 37.3227 24.1112 37.3227 22.4542C37.3227 20.8242 35.9957 19.4992 34.3667 19.4992C33.9227 19.4992 33.5547 19.5802 33.2077 19.7532C33.0147 19.8502 32.7837 19.8122 32.6307 19.6592C32.4787 19.5072 32.4417 19.2752 32.5377 19.0832C32.6517 18.8532 32.7147 18.5502 32.7147 18.2312C32.7147 16.8132 31.5617 15.6592 30.1437 15.6592C29.5687 15.6592 29.1207 15.8482 28.6247 16.1312C28.4917 16.2082 28.3297 16.2182 28.1837 16.1582C28.0397 16.0982 27.9327 15.9742 27.8937 15.8242C27.1547 13.0142 24.6057 11.0522 21.6967 11.0522C18.1617 11.0522 15.2857 13.9282 15.2857 17.4632C15.2857 17.7252 15.2857 17.9972 15.3357 18.1512C15.3937 18.3242 15.3517 18.5142 15.2277 18.6482C15.1037 18.7812 14.9167 18.8382 14.7407 18.7932C14.4937 18.7312 14.3137 18.7312 14.0167 18.7312V18.7312ZM34.3667 26.4102H14.0167C11.5837 26.4102 9.67773 24.5032 9.67773 22.0702C9.67773 19.6372 11.5837 17.7312 14.0167 17.7312C14.1097 17.7312 14.1987 17.7312 14.2877 17.7332C14.2857 17.6432 14.2857 17.5532 14.2857 17.4632C14.2857 13.3772 17.6097 10.0522 21.6967 10.0522C24.8527 10.0522 27.6417 12.0502 28.6787 14.9812C29.0917 14.7982 29.5727 14.6592 30.1437 14.6592C32.1127 14.6592 33.7147 16.2612 33.7147 18.2312C33.7147 18.3392 33.7097 18.4472 33.6997 18.5532C33.9127 18.5172 34.1337 18.4992 34.3667 18.4992C36.5477 18.4992 38.3227 20.2732 38.3227 22.4542C38.3227 24.6352 36.5477 26.4102 34.3667 26.4102V26.4102Z" fill="white"/>
</svg>

<svg width="48" height="48" viewBox="0 0 48 48" fill="none" xmlns="http://www.w3.org/2000/svg"><mask id="a" maskUnits="userSpaceOnUse" x="0" y="0" width="48" height="48"><path fill-rule="evenodd" clip-rule="evenodd" d="M0 0h48v48H0V0z" fill="#fff"/></mask><g mask="url(#a)"><path fill-rule="evenodd" clip-rule="evenodd" d="M48 24c0 13.255-10.745 24-24 24S0 37.255 0 24 10.745 0 24 0s24 10.745 24 24" fill="#1BE9B6"/></g><path fill-rule="evenodd" clip-rule="evenodd" d="M25.895 38.683v-5.979h-2.06V25.91h1v5.793h2.06v4.51l5.607-5.792h-2.298l1.852-4.695.93.368-1.313 3.327h3.192l-8.97 9.262zM15.304 31.243a.5.5 0 01-.5-.5v-4.844a.5.5 0 011 0v4.844a.5.5 0 01-.5.5M19.718 36.576a.5.5 0 01-.5-.5V26.3a.5.5 0 111 0v9.777a.5.5 0 01-.5.5" fill="#fff"/><path fill-rule="evenodd" clip-rule="evenodd" d="M14.017 18.731a3.304 3.304 0 00-3.34 3.34 3.304 3.304 0 003.34 3.34h20.35a2.925 2.925 0 002.956-2.957 2.96 2.96 0 00-2.956-2.955c-.444 0-.812.081-1.16.254a.499.499 0 01-.67-.67c.115-.23.178-.533.178-.852a2.574 2.574 0 00-2.571-2.572c-.575 0-1.023.19-1.52.472a.499.499 0 01-.73-.307 6.41 6.41 0 00-12.608 1.64c0 .261 0 .533.05.687a.498.498 0 01-.595.642c-.247-.062-.427-.062-.724-.062zm20.35 7.68h-20.35c-2.433 0-4.34-1.908-4.34-4.34 0-2.434 1.907-4.34 4.34-4.34.093 0 .182 0 .27.002l-.001-.27c0-4.086 3.324-7.41 7.41-7.41a7.41 7.41 0 016.983 4.928 3.555 3.555 0 011.465-.322 3.575 3.575 0 013.556 3.894 3.96 3.96 0 014.623 3.901 3.96 3.96 0 01-3.956 3.956z" fill="#fff"/></svg>
